X:1
T:Girl I Left Behind Me [1]
M:4/4
L:1/8
B:O'Flannagan - The Hibernia Collection (Boston, 1860, p. 15)
Z:AK/Fiddler's Companion
K:G
cd|e2B2B2 Ac|BAGF E2D2|G3A GABc|d4 B2 cd|
e2B2B2Ac|BAGF E2 FG|A2F2D2 EF|G4 G2:|
|:GA|B2d2e2f2|g2d2B2 GA|B2d2e2f2|g4 gfed|
e2B2 B2 Ac|BAGF E2 FG|A2F2D2 EF|G4 G2:|]

